picto/loud-music-prohibited-framed.svg

<svg class="color-immutable" width="30" height="30" viewBox="0 0 30 30" fill="none" xmlns="http://www.w3.org/2000/svg"><path d="M29.9999 0H0V29.9999H29.9999V0Z" fill="#2D327D"/><path d="M25.4999 2.99999C26.3249 2.99999 26.9999 3.67499 26.9999 4.49999V25.4999C26.9999 26.3249 26.3249 26.9999 25.4999 26.9999H4.49999C3.67499 26.9999 2.99999 26.3249 2.99999 25.4999V4.49999C2.99999 3.67499 3.67499 2.99999 4.49999 2.99999H25.4999ZM25.4999 2.62499H4.49999C3.46612 2.62499 2.62499 3.46612 2.62499 4.49999V25.4999C2.62499 26.5338 3.46612 27.3749 4.49999 27.3749H25.4999C26.5338 27.3749 27.3749 26.5338 27.3749 25.4999V4.49999C27.3749 3.46612 26.5338 2.62499 25.4999 2.62499Z" fill="white"/><path d="M11.0854 20.9552C10.696 20.7535 10.2169 20.6342 9.69855 20.6342C8.39407 20.6342 7.33665 21.3877 7.33665 22.3171C7.33665 23.2465 8.39407 23.9999 9.69855 23.9999C11.0029 23.9999 12.0604 23.2465 12.0604 22.3171V22.3169V13.1046L11.0854 12.1296L11.0854 20.9552Z" fill="white"/><path d="M18.9886 9.65105V17.9115L19.9636 18.8865V5.99998L11.0854 9.42253V10.0083L12.9915 11.9144L18.9886 9.65105Z" fill="white"/><path d="M15.2397 20.2171C15.2397 21.1465 16.2971 21.8999 17.6016 21.8999C18.5971 21.8999 19.4481 21.4609 19.7956 20.84L17.492 18.5362C16.2385 18.5771 15.2397 19.3139 15.2397 20.2171Z" fill="white"/><path d="M6.70834 5.63129L5.64769 6.69186L22.9899 24.0341L24.0504 22.9732L6.70834 5.63129Z" fill="#EB0000"/></svg>

<svg class="color-immutable" width="30" height="30" viewBox="0 0 30 30" fill="none" xmlns="http://www.w3.org/2000/svg"><path d="M30 0H0v30h30V0Z" fill="#2D327D"/><path d="M25.5 3c.825 0 1.5.675 1.5 1.5v21c0 .825-.675 1.5-1.5 1.5h-21c-.825 0-1.5-.675-1.5-1.5v-21C3 3.675 3.675 3 4.5 3h21Zm0-.375h-21A1.877 1.877 0 0 0 2.625 4.5v21c0 1.034.841 1.875 1.875 1.875h21a1.877 1.877 0 0 0 1.875-1.875v-21A1.877 1.877 0 0 0 25.5 2.625Z" fill="#fff"/><path d="M11.085 20.955a3.031 3.031 0 0 0-1.386-.32c-1.305 0-2.362.753-2.362 1.682 0 .93 1.057 1.683 2.362 1.683 1.304 0 2.361-.753 2.361-1.683v-9.212l-.975-.975v8.825ZM18.989 9.651v8.26l.975.976V6l-8.879 3.423v.585l1.906 1.906 5.998-2.263ZM15.24 20.217c0 .93 1.057 1.683 2.362 1.683.995 0 1.846-.44 2.194-1.06l-2.304-2.304c-1.254.041-2.252.778-2.252 1.681Z" fill="#fff"/><path d="m6.708 5.631-1.06 1.06L22.99 24.035l1.06-1.06L6.708 5.63Z" fill="#EB0000"/></svg>
